X:160
T:Beaulté
R:Basse-danse
C:Marie de Bourgogne
M: 4/4
L: 1/8
Q:1/4=100
K:G % 1 sharps
V:1
% Staff
% xbgnhn
% By Unregistered User
% Copyright 0xa9 1999 by NoteWorthy ArtWare, Inc.
% All Rights Reserved
% Generated by NoteWorthy Composer
e2 e2 d2 d2| 
B3A G2 GA| 
B2 E2 G2 F2| 
E2 G2 A2 B2|
e3d c2 B2| 
B4 B2 e2| 
B2 E2 G2 F2| 
EF GF E2 a2|
g2 e2 f3e| 
e6- e2| 
e2 e2 de dc| 
BA GF G2 GA|
B2 E2 G2 F2| 
E2 G2 A2 B2| 
ef ed c2 B2| 
B4 B2 e2|
B2 EF GA FG| 
EF GF E2 a2| 
g2 e2 f3e| 
e8 |]
V:2
% Staff-1
% xbgnhn
% By Unregistered User
% Copyright 0xa9 1999 by NoteWorthy ArtWare, Inc.
% All Rights Reserved
% Generated by NoteWorthy Composer
B2 B2 A2 A2| 
G3F E2 E2| 
E2z2 E2 ^D2| 
E2 E2 F2 GF|
G2 B2 A2 G2| 
G4 E2 EF| 
G2z2 E2 ^D2| 
E2z2z4|
B4 B4| 
B6- B2| 
B2 B2 A2 A2| 
G2 E2 E2 E2|
E4 E2 ^D2| 
E2 E2 F2 GF| 
G3G A2 B2| 
GA GF GF GA|
G2z2 E2 ^D2| 
E2z2z4| 
B4 B4| 
B8 |]
V:3 clef=treble
% Staff-2
% xbgnhn
% By Unregistered User
% Copyright 0xa9 1999 by NoteWorthy ArtWare, Inc.
% All Rights Reserved
% Generated by NoteWorthy Composer
E2 E2 F2 F2| 
G2 G,A, B,2 B,A,| 
G,2 C2 B,2 B,2| 
E4z4|
E3E F2 G2| 
G4 G,F, G,A,| 
B,2 C2 B,2 B,2| 
E4z2 A,2|
B4 B4| 
E6- E2| 
E2 E2 F2 F2| 
G2 G,A, B,2 B,A,|
G,2 C2 B,2 B,2| 
E4z4| 
E4z4| 
E4z4|
E2 C2 B,2 B,2| 
E4z4| 
B4 B4| 
E8 |]
V:4 clef=perc stafflines=1 staffscale=0.8
B2 BB B2 BB| 
BB BB B2 BB| 
B2 BB B2 BB| 
B2 BB B2 BB|
B2 BB B2 BB| 
B2 BB BB BB| 
B2 BB B2 BB| 
B2 BB B2 BB|
B2 BB BB BB| 
B2 BB B3-B/2x/2| 
B2 BB B2 BB| 
B2 BB B2 BB|
B2 BB BB BB| 
B2 BB B2 BB| 
B2 BB B2 BB| 
B2 BB B2 BB|
B2 BB B2 BB| 
B2 BB B2 BB| 
B2 BB BB BB| 
B2 BB B4 |]







